icons/layout-spacious-24.svg

<svg xmlns="http://www.w3.org/2000/svg" viewBox="0 0 24 24"><path d="M23 23H1v-4h22v4zM2 22h20v-2H2v2zm21-8H1v-4h22v4zM2 13h20v-2H2v2zm21-8H1V1h22v4zM2 4h20V2H2v2z"/><path fill="none" d="M0 0h24v24H0z"/></svg>

<?xml version="1.0" encoding="UTF-8"?><svg id="icons" xmlns="http://www.w3.org/2000/svg" viewBox="0 0 24 24"><defs><style>.cls-1{fill:none;}</style></defs><path d="M23,23H1v-4H23v4Zm-21-1H22v-2H2v2ZM23,14H1v-4H23v4ZM2,13H22v-2H2v2ZM23,5H1V1H23V5ZM2,4H22V2H2v2Z"/><rect class="cls-1" width="24" height="24"/></svg>
